contents/blog/openlineage-spark/image.svg

<svg id="Layer_1" data-name="Layer 1" xmlns="http://www.w3.org/2000/svg" viewBox="0 0 720 490.43"><defs><style>.cls-1{fill:#495364;}.cls-2{fill:#b2b2cb;}.cls-10,.cls-11,.cls-12,.cls-13,.cls-14,.cls-15,.cls-16,.cls-17,.cls-18,.cls-19,.cls-2,.cls-20,.cls-21,.cls-22,.cls-23,.cls-24,.cls-25,.cls-26,.cls-27,.cls-28,.cls-29,.cls-3,.cls-4,.cls-5,.cls-6,.cls-7,.cls-8,.cls-9{fill-opacity:0.5;}.cls-3{fill:#9eacca;}.cls-4{fill:#000507;}.cls-5{fill:#bcc0dc;}.cls-6{fill:#35516a;}.cls-7{fill:#7e859a;}.cls-8{fill:#d3d8ef;}.cls-9{fill:#526072;}.cls-10{fill:#0c0e0d;}.cls-11{fill:#55525d;}.cls-12{fill:#a8b5dd;}.cls-13{fill:#565764;}.cls-14{fill:#919cb9;}.cls-16{fill:#170000;}.cls-17{fill:#576e84;}.cls-18{fill:#556b7f;}.cls-19{fill:#bbbeca;}.cls-20{fill:#213547;}.cls-21{fill:#959cb7;}.cls-22{fill:#4f607c;}.cls-23{fill:#dee9ff;}.cls-24{fill:#37464e;}.cls-25{fill:#564e5b;}.cls-26{fill:#abb4cd;}.cls-27{fill:#5f7792;}.cls-28{fill:#374459;}.cls-29{fill:#65493c;}</style></defs><rect class="cls-1" width="720" height="490.43"/><path class="cls-2" d="M387,372.6,804.6,527.4l135-367.2L522,5.4Z"/><path class="cls-3" d="M28.8,149.4l381.6,108L471.6,36,90-70.2Z"/><path class="cls-4" d="M12.6,304.2l-9,232.2,243,7.2,9-232.2Z"/><path class="cls-5" d="M237.6,144,387,129.6,338.4-390.6,189-376.2Z"/><path class="cls-6" d="M145.8,12.6l-498.6,243,129.6,261,496.8-243Z"/><path class="cls-7" d="M399.6,435.6,702,505.8,797.4,86.4,495,16.2Z"/><path class="cls-8" d="M482.4,59.4l118.8,36L716.4-277.2l-118.8-36Z"/><path class="cls-9" d="M484.2,405,644.4,601.2,802.8,469.8,642.6,273.6Z"/><path class="cls-10" d="M149.4,392.4,25.2,783,365.4,891,489.6,500.4Z"/><path class="cls-11" d="M507.6,7.2l297,86.4L936-360,639-446.4Z"/><path class="cls-12" d="M354.6,171,423,318.6l50.4-25.2L405,145.8Z"/><path class="cls-13" d="M559.8,3.6,714.6,151.2,874.8-18,720-165.6Z"/><path class="cls-14" d="M392.4,235.8l27,133.2L928.8,262.8l-27-133.2Z"/><path class="cls-15" d="M176.4,333l-45,127.8,61.2,21.6,45-127.8Z"/><path class="cls-16" d="M482.4,145.8,459,196.2,527.4,225l23.4-50.4Z"/><path class="cls-17" d="M84.6,140.4l37.8,176.4,223.2-50.4L307.8,90Z"/><path class="cls-18" d="M90,315l9,151.2,45-3.6-9-151.2Z"/><path class="cls-19" d="M664.2,174.6l-37.8,66.6,331.2,180,37.8-66.6Z"/><path class="cls-20" d="M45,226.8l-115.2,27L55.8,765,171,738Z"/><path class="cls-21" d="M574.2,106.2,432,439.2l32.4,12.6,142.2-333Z"/><path class="cls-22" d="M464.4,181.8l-210.6,261,95.4,75.6,210.6-261Z"/><path class="cls-15" d="M320.4,469.8,306,637.2l183.6,12.6L504,482.4Z"/><path class="cls-23" d="M550.8,1.8,513,46.8l79.2,64.8,37.8-45Z"/><path class="cls-24" d="M304.2,253.8l-113.4,63L293.4,498.6l113.4-63Z"/><path class="cls-25" d="M343.8,0V34.2l252-12.6V-10.8Z"/><path class="cls-26" d="M216,127.8,397.8,153l12.6-95.4L228.6,32.4Z"/><path class="cls-27" d="M514.8,424.8,482.4,554.4,927,657l32.4-129.6Z"/><path class="cls-28" d="M172.8,28.8-126,178.2l25.2,45,297-149.4Z"/><path class="cls-29" d="M430.2,75.6,417.6,181.8,565.2,198,577.8,91.8Z"/></svg>

<?xml version="1.0" encoding="UTF-8" standalone="no"?>
<!DOCTYPE svg PUBLIC "-//W3C//DTD SVG 1.1//EN" "http://www.w3.org/Graphics/SVG/1.1/DTD/svg11.dtd">
<!-- Created with Vectornator (http://vectornator.io/) -->
<svg height="100%" stroke-miterlimit="10" style="fill-rule:nonzero;clip-rule:evenodd;stroke-linecap:round;stroke-linejoin:round;" version="1.1" viewBox="0 0 720 490.43" width="100%" xml:space="preserve" xmlns="http://www.w3.org/2000/svg" xmlns:vectornator="http://vectornator.io" xmlns:xlink="http://www.w3.org/1999/xlink">
<defs/>
<clipPath id="ArtboardFrame">
<rect height="490.43" width="720" x="0" y="0"/>
</clipPath>
<g clip-path="url(#ArtboardFrame)" id="Untitled" vectornator:layerName="Untitled">
<path d="M0 0L720 0L720 0L720 490.43L720 490.43L0 490.43L0 490.43L0 0L0 0Z" fill="#495364" fill-rule="nonzero" opacity="1" stroke="none"/>
<path d="M387 372.6L804.6 527.4L939.6 160.2L522 5.4L387 372.6Z" fill="#b2b2cb" fill-rule="nonzero" opacity="1" stroke="none"/>
<path d="M28.8 149.4L410.4 257.4L471.6 36L90-70.2L28.8 149.4Z" fill="#9eacca" fill-rule="nonzero" opacity="1" stroke="none"/>
<path d="M12.6 304.2L3.6 536.4L246.6 543.6L255.6 311.4L12.6 304.2Z" fill="#000507" fill-rule="nonzero" opacity="1" stroke="none"/>
<path d="M237.6 144L387 129.6L338.4-390.6L189-376.2L237.6 144Z" fill="#bcc0dc" fill-rule="nonzero" opacity="1" stroke="none"/>
<path d="M145.8 12.6L-352.8 255.6L-223.2 516.6L273.6 273.6L145.8 12.6Z" fill="#35516a" fill-rule="nonzero" opacity="1" stroke="none"/>
<path d="M399.6 435.6L702 505.8L797.4 86.4L495 16.2L399.6 435.6Z" fill="#7e859a" fill-rule="nonzero" opacity="1" stroke="none"/>
<path d="M482.4 59.4L601.2 95.4L716.4-277.2L597.6-313.2L482.4 59.4Z" fill="#d3d8ef" fill-rule="nonzero" opacity="1" stroke="none"/>
<path d="M484.2 405L644.4 601.2L802.8 469.8L642.6 273.6L484.2 405Z" fill="#526072" fill-rule="nonzero" opacity="1" stroke="none"/>
<path d="M149.4 392.4L25.2 783L365.4 891L489.6 500.4L149.4 392.4Z" fill="#0c0e0d" fill-rule="nonzero" opacity="1" stroke="none"/>
<path d="M507.6 7.2L804.6 93.6L936-360L639-446.4L507.6 7.2Z" fill="#55525d" fill-rule="nonzero" opacity="1" stroke="none"/>
<path d="M354.6 171L423 318.6L473.4 293.4L405 145.8L354.6 171Z" fill="#a8b5dd" fill-rule="nonzero" opacity="1" stroke="none"/>
<path d="M559.8 3.6L714.6 151.2L874.8-18L720-165.6L559.8 3.6Z" fill="#565764" fill-rule="nonzero" opacity="1" stroke="none"/>
<path d="M392.4 235.8L419.4 369L928.8 262.8L901.8 129.6L392.4 235.8Z" fill="#919cb9" fill-rule="nonzero" opacity="1" stroke="none"/>
<path d="M176.4 333L131.4 460.8L192.6 482.4L237.6 354.6L176.4 333Z" fill="#000000" fill-rule="nonzero" opacity="1" stroke="none"/>
<path d="M482.4 145.8L459 196.2L527.4 225L550.8 174.6L482.4 145.8Z" fill="#170000" fill-rule="nonzero" opacity="1" stroke="none"/>
<path d="M84.6 140.4L122.4 316.8L345.6 266.4L307.8 90L84.6 140.4Z" fill="#576e84" fill-rule="nonzero" opacity="1" stroke="none"/>
<path d="M90 315L99 466.2L144 462.6L135 311.4L90 315Z" fill="#556b7f" fill-rule="nonzero" opacity="1" stroke="none"/>
<path d="M664.2 174.6L626.4 241.2L957.6 421.2L995.4 354.6L664.2 174.6Z" fill="#bbbeca" fill-rule="nonzero" opacity="1" stroke="none"/>
<path d="M45 226.8L-70.2 253.8L55.8 765L171 738L45 226.8Z" fill="#213547" fill-rule="nonzero" opacity="1" stroke="none"/>
<path d="M574.2 106.2L432 439.2L464.4 451.8L606.6 118.8L574.2 106.2Z" fill="#959cb7" fill-rule="nonzero" opacity="1" stroke="none"/>
<path d="M464.4 181.8L253.8 442.8L349.2 518.4L559.8 257.4L464.4 181.8Z" fill="#4f607c" fill-rule="nonzero" opacity="1" stroke="none"/>
<path d="M320.4 469.8L306 637.2L489.6 649.8L504 482.4L320.4 469.8Z" fill="#000000" fill-rule="nonzero" opacity="1" stroke="none"/>
<path d="M550.8 1.8L513 46.8L592.2 111.6L630 66.6L550.8 1.8Z" fill="#dee9ff" fill-rule="nonzero" opacity="1" stroke="none"/>
<path d="M304.2 253.8L190.8 316.8L293.4 498.6L406.8 435.6L304.2 253.8Z" fill="#37464e" fill-rule="nonzero" opacity="1" stroke="none"/>
<path d="M343.8 0L343.8 34.2L595.8 21.6L595.8-10.8L343.8 0Z" fill="#564e5b" fill-rule="nonzero" opacity="1" stroke="none"/>
<path d="M216 127.8L397.8 153L410.4 57.6L228.6 32.4L216 127.8Z" fill="#abb4cd" fill-rule="nonzero" opacity="1" stroke="none"/>
<path d="M514.8 424.8L482.4 554.4L927 657L959.4 527.4L514.8 424.8Z" fill="#5f7792" fill-rule="nonzero" opacity="1" stroke="none"/>
<path d="M172.8 28.8L-126 178.2L-100.8 223.2L196.2 73.8L172.8 28.8Z" fill="#374459" fill-rule="nonzero" opacity="1" stroke="none"/>
<path d="M430.2 75.6L417.6 181.8L565.2 198L577.8 91.8L430.2 75.6Z" fill="#65493c" fill-rule="nonzero" opacity="1" stroke="none"/>
</g>
</svg>
